svgs/light/headphones.svg

<svg xmlns="http://www.w3.org/2000/svg" viewBox="0 0 512 512"><!-- Font Awesome Pro 6.0.0-alpha2 by @fontawesome - https://fontawesome.com License - https://fontawesome.com/license (Commercial License) --><path d="M243.025 32.322C105.537 39.152 0 157.799 0 295.455V415.875C0 451.25 28.625 480 64 480H96C113.625 480 128 465.625 128 448V288C128 270.375 113.625 256 96 256H64C53.207 256 43.199 258.93 34.283 263.654C48.479 156.842 134.807 69.719 244.684 64.281C365.178 58.316 466.424 148.199 478.732 264.207C469.576 259.141 459.207 256 448 256H416C398.375 256 384 270.375 384 288V448C384 465.625 398.375 480 416 480H448C483.375 480 512 451.25 512 415.875V288C512 142.574 390.016 25.021 243.025 32.322ZM64 288H96V448H64C46.375 448 32 433.5 32 415.875V320.125C32 302.5 46.375 288 64 288ZM480 415.875C480 433.5 465.625 448 448 448H416V288H448C465.625 288 480 302.5 480 320.125V415.875Z"/></svg>

<svg xmlns="http://www.w3.org/2000/svg" viewBox="0 0 512 512"><!--! Font Awesome Pro 6.3.0 by @fontawesome - https://fontawesome.com License - https://fontawesome.com/license (Commercial License) Copyright 2023 Fonticons, Inc. --><path d="M243 32.32C105.5 39.15 0 157.8 0 295.5v120.4C0 451.3 28.63 480 64 480h32c17.62 0 32-14.38 32-32V288c0-17.62-14.38-32-32-32H64C53.21 256 43.2 258.9 34.28 263.7c14.2-106.8 100.5-193.9 210.4-199.4c120.5-5.965 221.7 83.92 234 199.9C469.6 259.1 459.2 256 448 256h-32c-17.62 0-32 14.38-32 32v160c0 17.62 14.38 32 32 32h32c35.38 0 64-28.75 64-64.13V287.9C512 142.5 390 25.02 243 32.32zM64 288h32v160H64c-17.62 0-32-14.5-32-32.13v-95.75C32 302.5 46.38 288 64 288zM480 415.9C480 433.5 465.6 448 448 448h-32V288h32c17.62 0 32 14.5 32 32.13V415.9z"/></svg>
